X: 42399
T: Were You At The Fair?
R: strathspey
M: 4/4
K: Dmajor
|:A/|A>DD>E F>F F2|A>DD>E F>E E2|A>DD>E F>F F2|A>BA>G F>DD3/2:|
|:A/|A>dd>d c2- c>A|A>dd>d c<Ad>e|f>ed>c B2 B>c|d>AA>G F>DD3/2:|

